X: 1
T:Wise Maid, The
T:All Around the World
M:C|
L:1/8
R:Reel
K:D
DE[|:F3G FEDE|FAAB AFED|d2 (3efg fdec|dBAF BE~E2|!
F2FG FEDE|FAAB AFED|d2 (3efg fdec|1dBAG FDDE:|2dBAG FDFA|!
|:d2AG FDFA|dfaf gfeg|fAdf eAce|dfed cAAc|!
BEGB ADFA|dfaf gfed|(3Bcd ce dBAG|1FAEA D3c:|2FAEA D3E|]!
